X: 7
T: The Orphan
R: jig
M: 6/8
L: 1/8
K: Emin
|:~E3 EDB,|GFG AGA|B2 G ABA|GEF EDB,|
~A,3 EDB,|GFG AGA|B2 G ABA|GED E3:||
|:efe ded|BAB ~d3|edB AGA|BGE ~D3|
~E3 EDB,|GFG AGA|B2 G ABA|GED E3:||


Tune 217	Setting 12898

